!!!SOCIAL_FUNCTION:	cremation legend songs
!!!PDT:	1932
!!!OTL: No_10_The_Wonder-boy_Meets_His_Brother.krn
!!!REG: Southwest
!!!LANG: Non-Tone
!!!LING_GROUP: Yuman-Cochimi
**kern
*staff1
=1-
*clefF4
*k[b-e-]
*M2/4
4r
8r
8G\
=2
12G\L
12G\
12F\J
12G\
12r
12G\
=3
12G\L
12G\
12F\J
24G\
24r
12G\L
12G\J
=4
12G\L
12G\
12B-\J
12B-\L
12G\
12G\J
=5
12G\L
12G\
12F\J
12G\
12r
12G\
=6
12G\L
12G\
12F\J
12G\
12r
12G\
=7
12G\L
12G\
12F\J
24G\
24r
12G\L
12G\J
=8!|:
12G\L
12A\
12B-\J
12A\L
12B-\
12B-\J
=9
12G\L
12A\
12B-\J
16G\
16r
8G\
=10
12G\L
12G\
12E-\J
12G\
12r
12E-\
=11
12G\L
12G\
12E-\J
12G\
12r
12G\
=12
12G\L
12G\
12E-\J
24G\
24r
12G\L
12G\J
=13
12G^\L
12B-\
12B-\J
12B-^\L
12G\
12G\J
=14
12G\L
12G\
12F\J
12G\
12r
12G\
=15
12G\L
12G\
12E-\J
12G\
12r
12G\
=16
12G\L
12G\
12G\J
24G\
24r
12G\L
12G\J
=17
12G^\L
12B-\
12B-\J
12B-^\L
12G\
12G\J
=18
12G\L
12G\
12E-\J
12G\
12r
12G\
=19
12G\L
12G\
12E-\J
12G\
12r
12G\
=20
12G\L
12G\
12G\J
12G\
12r
12G\
=21:|!
12G\L
12G\
12G\J
12G\
12r
12r
==
*-
